images/logo-zeus.svg

<?xml version="1.0" encoding="UTF-8" standalone="no"?>
<svg width="160px" height="67px" viewBox="0 0 160 67" version="1.1" xmlns="http://www.w3.org/2000/svg" xmlns:xlink="http://www.w3.org/1999/xlink">
    <!-- Generator: Sketch 39.1 (31720) - http://www.bohemiancoding.com/sketch -->
    <title>logo-zeus</title>
    <desc>Created with Sketch.</desc>
    <defs></defs>
    <g id="Symbols" stroke="none" stroke-width="1" fill="none" fill-rule="evenodd">
        <g id="logo-zeus" fill="#000000">
            <g>
                <path d="M159.125689,27.7636741 C158.805689,27.1509333 158.176356,26.7693037 157.485393,26.7693037 L141.880059,26.7740444 L150.656356,2.47893333 C150.860207,1.91122963 150.776059,1.27952593 150.4288,0.786488889 C150.082726,0.294637037 149.517393,-0.000474074074 148.915319,-0.000474074074 L136.265837,-0.000474074074 C135.477689,-0.000474074074 134.774874,0.499674074 134.508207,1.26885926 L123.35917,36.2851556 C123.16243,36.8504889 123.252504,37.478637 123.598578,37.9669333 C123.944652,38.4552296 124.5088,38.7456 125.106133,38.7456 L138.414578,38.7479704 L130.725096,63.9722667 C130.454874,64.8623407 130.850726,65.7690074 131.687467,66.1767111 C131.957689,66.3070815 132.238578,66.3698963 132.513541,66.3698963 C133.096652,66.3698963 133.653689,66.0878222 134.01517,65.5687111 L159.0048,29.6777481 C159.399467,29.1100444 159.445689,28.3764148 159.125689,27.7636741" id="Fill-1"></path>
                <path d="M77.9911111,40.2043259 L77.9911111,0.000474074074 L90.930963,0.000474074074 L90.930963,39.8132148 C90.930963,42.0887704 90.9428148,43.7409185 90.9665185,44.7720296 C90.9902222,45.8031407 91.0494815,47.059437 91.1442963,48.5397333 C91.2379259,50.0212148 91.4038519,51.0582519 91.6408889,51.6508444 C91.8779259,52.243437 92.2038519,52.883437 92.6186667,53.5696593 C93.0334815,54.2570667 93.5727407,54.707437 94.2364444,54.9207704 C94.9001481,55.1341037 95.7060741,55.2407704 96.653037,55.2407704 C97.6011852,55.2407704 98.4071111,55.1341037 99.0708148,54.9207704 C99.7345185,54.707437 100.273778,54.2629926 100.688593,53.587437 C101.103407,52.9130667 101.429333,52.2789926 101.665185,51.6864 C101.902222,51.0938074 102.068148,50.0686222 102.162963,48.6108444 C102.257778,47.1542519 102.317037,45.9216593 102.340741,44.9142519 C102.364444,43.9068444 102.376296,42.2784 102.376296,40.0265481 L102.376296,39.8132148 L102.376296,0.000474074074 L115.316148,0.000474074074 L115.316148,40.2043259 C115.316148,42.2428444 115.256889,44.0905481 115.13837,45.7498074 C115.019852,47.4090667 114.794667,49.1264 114.462815,50.9041778 C114.130963,52.6819556 113.680593,54.2511407 113.111704,55.6141037 C112.542815,56.9770667 111.785481,58.2807704 110.837333,59.5240296 C109.889185,60.7684741 108.769185,61.7936593 107.477333,62.5995852 C106.186667,63.4055111 104.628148,64.0443259 102.802963,64.5184 C100.978963,64.9924741 98.9285926,65.2295111 96.653037,65.2295111 C94.3786667,65.2295111 92.3282963,64.9924741 90.5042963,64.5184 C88.6791111,64.0443259 87.1265185,63.4055111 85.8477037,62.5995852 C84.5677037,61.7936593 83.4536296,60.7684741 82.5054815,59.5240296 C81.5573333,58.2807704 80.7988148,56.9770667 80.2311111,55.6141037 C79.6622222,54.2511407 79.2059259,52.6819556 78.8622222,50.9041778 C78.5185185,49.1264 78.2874074,47.4090667 78.1688889,45.7498074 C78.0503704,44.0905481 77.9911111,42.2428444 77.9911111,40.2043259" id="Fill-4"></path>
                <polygon id="Fill-6" points="40.8912593 64.0033185 40.8912593 0.0175407407 67.5875556 0.0175407407 67.5875556 8.90405926 53.8311111 8.90405926 53.8311111 26.3227259 63.570963 26.3227259 63.570963 35.4225778 53.8311111 35.4225778 53.8311111 55.1168 67.5875556 55.1168 67.5875556 64.0033185"></polygon>
                <polygon id="Fill-8" points="0 63.9856593 0 55.881363 16.8853333 8.92195556 1.95555556 8.92195556 1.95555556 0.035437037 29.5395556 0.035437037 29.5395556 8.17647407 12.5842963 55.0991407 29.5395556 55.0991407 29.5395556 63.9856593"></polygon>
            </g>
        </g>
    </g>
</svg>

<svg width="160" height="67" viewBox="0 0 160 67" xmlns="http://www.w3.org/2000/svg"><title>logo-zeus</title><g fill="#000" fill-rule="evenodd"><path d="M159.126 27.764a1.847 1.847 0 0 0-1.64-.995l-15.606.005 8.776-24.295a1.852 1.852 0 0 0-1.74-2.48h-12.65c-.788 0-1.491.5-1.758 1.27L123.36 36.285a1.85 1.85 0 0 0 1.747 2.46l13.309.003-7.69 25.224c-.27.89.126 1.797.962 2.205a1.822 1.822 0 0 0 2.328-.608l24.99-35.891c.394-.568.44-1.302.12-1.914M77.991 40.204V0h12.94v39.813c0 2.276.012 3.928.036 4.959.023 1.031.082 2.287.177 3.768.094 1.481.26 2.518.497 3.11.237.593.563 1.233.978 1.92.414.687.954 1.137 1.617 1.35.664.214 1.47.32 2.417.32.948 0 1.754-.106 2.418-.32.664-.213 1.203-.657 1.618-1.333.414-.674.74-1.308.976-1.9.237-.593.403-1.618.498-3.076.095-1.457.154-2.69.178-3.697.023-1.007.035-2.636.035-4.887V0h12.94v40.204c0 2.039-.06 3.887-.178 5.546a45.947 45.947 0 0 1-.675 5.154c-.332 1.778-.782 3.347-1.351 4.71a17.646 17.646 0 0 1-2.275 3.91 12.553 12.553 0 0 1-3.36 3.076c-1.29.806-2.849 1.444-4.674 1.918-1.824.474-3.874.712-6.15.712-2.274 0-4.325-.238-6.149-.712-1.825-.474-3.377-1.112-4.656-1.918a12.664 12.664 0 0 1-3.343-3.076 17.6 17.6 0 0 1-2.274-3.91c-.569-1.363-1.025-2.932-1.369-4.71a43.496 43.496 0 0 1-.693-5.154 78.387 78.387 0 0 1-.178-5.546M40.891 64.003V.018h26.697v8.886H53.83v17.419h9.74v9.1h-9.74v19.694h13.757v8.886zM0 63.986V55.88L16.885 8.922H1.955V.035H29.54v8.141L12.584 55.1H29.54v8.887z"/></g></svg>
